SVG_Azure_Grouped/Data/Managed Database.svg

<?xml version="1.0" encoding="UTF-8" standalone="no"?>
<!-- Generated by Microsoft Visio, SVG Export Managed Database.svg Page-1 -->

<svg
   xmlns:dc="http://purl.org/dc/elements/1.1/"
   xmlns:cc="http://creativecommons.org/ns#"
   xmlns:rdf="http://www.w3.org/1999/02/22-rdf-syntax-ns#"
   xmlns:svg="http://www.w3.org/2000/svg"
   xmlns="http://www.w3.org/2000/svg"
   xmlns:sodipodi="http://sodipodi.sourceforge.net/DTD/sodipodi-0.dtd"
   xmlns:inkscape="http://www.inkscape.org/namespaces/inkscape"
   width="0.78739381in"
   height="0.74804765in"
   viewBox="0 0 56.692262 53.859572"
   xml:space="preserve"
   class="st8"
   version="1.1"
   id="svg79"
   sodipodi:docname="Managed Database.svg"
   style="font-size:12px;overflow:visible;color-interpolation-filters:sRGB;fill:none;fill-rule:evenodd;stroke-linecap:square;stroke-miterlimit:3"
   inkscape:version="0.92.5 (2060ec1f9f, 2020-04-08)"><metadata
   id="metadata83"><rdf:RDF><cc:Work
       rdf:about=""><dc:format>image/svg+xml</dc:format><dc:type
         rdf:resource="http://purl.org/dc/dcmitype/StillImage" /></cc:Work></rdf:RDF></metadata><sodipodi:namedview
   pagecolor="#ffffff"
   bordercolor="#666666"
   borderopacity="1"
   objecttolerance="10"
   gridtolerance="10"
   guidetolerance="10"
   inkscape:pageopacity="0"
   inkscape:pageshadow="2"
   inkscape:window-width="640"
   inkscape:window-height="480"
   id="namedview81"
   showgrid="false"
   inkscape:zoom="1.4523234"
   inkscape:cx="37.795237"
   inkscape:cy="35.897204"
   inkscape:window-x="0"
   inkscape:window-y="0"
   inkscape:window-maximized="0"
   inkscape:current-layer="svg79" />
	<style
   type="text/css"
   id="style2">
	<![CDATA[
		.st1 {fill:url(#grad0-6);stroke:none;stroke-linecap:butt;stroke-width:34}
		.st2 {fill:#eaeaea}
		.st3 {stroke:none;stroke-linecap:butt;stroke-width:34}
		.st4 {fill:#50e6ff;stroke:none;stroke-linecap:butt;stroke-width:34}
		.st5 {fill:#198ab3;stroke:none;stroke-linecap:butt;stroke-width:34}
		.st6 {fill:url(#grad0-17)}
		.st7 {fill:#ffffff;stroke:none;stroke-linecap:butt;stroke-width:34}
		.st8 {fill:none;fill-rule:evenodd;font-size:12px;overflow:visible;stroke-linecap:square;stroke-miterlimit:3}
	]]>
	</style>

	<defs
   id="Patterns_And_Gradients">
		<linearGradient
   id="grad0-6"
   x1="0"
   y1="70.718342"
   x2="42.786785"
   y2="70.718342"
   gradientTransform="scale(0.93136233,1.073696)"
   gradientUnits="userSpaceOnUse">
			<stop
   offset="0"
   stop-color="#005ba1"
   stop-opacity="1"
   id="stop4" />
			<stop
   offset="0.07"
   stop-color="#0060a9"
   stop-opacity="1"
   id="stop6" />
			<stop
   offset="0.36"
   stop-color="#0071c8"
   stop-opacity="1"
   id="stop8" />
			<stop
   offset="0.52"
   stop-color="#0078d4"
   stop-opacity="1"
   id="stop10" />
			<stop
   offset="0.64"
   stop-color="#0074cd"
   stop-opacity="1"
   id="stop12" />
			<stop
   offset="0.82"
   stop-color="#006abb"
   stop-opacity="1"
   id="stop14" />
			<stop
   offset="1"
   stop-color="#005ba1"
   stop-opacity="1"
   id="stop16" />
		</linearGradient>
		<linearGradient
   id="grad0-17"
   x1="0"
   y1="111.89393"
   x2="32.255187"
   y2="111.89393"
   gradientTransform="scale(1.1827555,0.84548328)"
   gradientUnits="userSpaceOnUse">
			<stop
   offset="0"
   stop-color="#198ab3"
   stop-opacity="1"
   id="stop19" />
			<stop
   offset="0"
   stop-color="#198ab3"
   stop-opacity="1"
   id="stop21" />
			<stop
   offset="0.11"
   stop-color="#22a5cb"
   stop-opacity="1"
   id="stop23" />
			<stop
   offset="0.23"
   stop-color="#29bade"
   stop-opacity="1"
   id="stop25" />
			<stop
   offset="0.37"
   stop-color="#2ec9eb"
   stop-opacity="1"
   id="stop27" />
			<stop
   offset="0.53"
   stop-color="#31d1f3"
   stop-opacity="1"
   id="stop29" />
			<stop
   offset="0.78"
   stop-color="#32d4f5"
   stop-opacity="1"
   id="stop31" />
		</linearGradient>
	</defs>
	<g
   id="g77"
   transform="translate(-34.000261,-34.0004)">
		<title
   id="title35">Page-1</title>
		<g
   id="group19326-1"
   transform="translate(34,-34.0157)">
			<title
   id="title37">Managed Database.19326</title>
			<g
   id="group19327-2">
				<title
   id="title39">Icon-databases-135</title>
				<g
   id="shape19328-3"
   transform="translate(0.13316,-0.70689)">
					<title
   id="title41">Sheet.19328</title>
					<path
   d="M 19.97,83.2 C 8.99,83.2 0,79.83 0,75.93 v 38.67 c 0,3.98 8.76,7.24 19.57,7.27 h 0.3 c 10.96,0 19.98,-3.36 19.98,-7.27 V 75.93 c -0.04,4 -8.92,7.27 -19.88,7.27 z"
   class="st1"
   id="path43"
   inkscape:connector-curvature="0"
   style="fill:url(#grad0-6);stroke:none;stroke-width:34;stroke-linecap:butt" />
				</g>
				<g
   id="shape19329-7"
   transform="translate(0,-39.3839)">
					<title
   id="title46">Sheet.19329</title>
					<path
   d="m 39.95,114.6 c 0,4.01 -8.89,7.27 -19.98,7.27 C 8.89,121.87 0,118.51 0,114.6 c 0,-3.9 9.12,-7.2 20.11,-7.2 10.98,0 19.97,3.37 19.97,7.3 z"
   class="st2"
   id="path48"
   inkscape:connector-curvature="0"
   style="fill:#eaeaea" />
					<path
   d="m 39.95,114.6 c 0,4.01 -8.89,7.27 -19.98,7.27 C 8.89,121.87 0,118.51 0,114.6 c 0,-3.9 9.12,-7.2 20.11,-7.2 10.98,0 19.97,3.37 19.97,7.3"
   class="st3"
   id="path50"
   inkscape:connector-curvature="0"
   style="stroke:none;stroke-width:34;stroke-linecap:butt" />
				</g>
				<g
   id="shape19330-10"
   transform="translate(4.86034,-42.5144)">
					<title
   id="title53">Sheet.19330</title>
					<path
   d="m 30.33,117.26 c 0,2.56 -6.66,4.61 -15.22,4.61 -8.55,0 -15.11,-2.18 -15.11,-4.61 0,-2.42 6.82,-4.74 15.25,-4.74 8.42,0 15.08,2.05 15.08,4.74 z"
   class="st4"
   id="path55"
   inkscape:connector-curvature="0"
   style="fill:#50e6ff;stroke:none;stroke-width:34;stroke-linecap:butt" />
				</g>
				<g
   id="shape19331-12"
   transform="translate(8.0229,-42.649)">
					<title
   id="title58">Sheet.19331</title>
					<path
   d="M 12.08,118.34 A 36.619,37.0276 -180 0 0 0,120.09 a 36.2528,36.6573 -180 0 0 12.08,1.78 36.153,36.5563 -180 0 0 12.06,-1.78 36.619,37.0276 -180 0 0 -12.06,-1.75 z"
   class="st5"
   id="path60"
   inkscape:connector-curvature="0"
   style="fill:#198ab3;stroke:none;stroke-width:34;stroke-linecap:butt" />
				</g>
				<g
   id="shape19332-14"
   transform="translate(18.5425)">
					<title
   id="title63">Sheet.19332</title>
					<path
   d="M 35.79,107.53 A 9.62082,9.72815 -180 0 0 30.83,105.04 10.786,10.9063 -180 0 0 19.71,94.61 11.1522,11.2766 -180 0 0 9.05,101.91 10.1867,10.3004 -180 0 0 0,111.78 10.3865,10.5024 -180 0 0 10.72,121.87 h 18.81 a 8.6887,8.78563 -180 0 0 8.62,-8.44 8.18935,8.28071 -180 0 0 -2.5,-5.86 z"
   class="st6"
   id="path65"
   inkscape:connector-curvature="0"
   style="fill:url(#grad0-17)" />
					<path
   d="M 35.79,107.53 A 9.62082,9.72815 -180 0 0 30.83,105.04 10.786,10.9063 -180 0 0 19.71,94.61 11.1522,11.2766 -180 0 0 9.05,101.91 10.1867,10.3004 -180 0 0 0,111.78 10.3865,10.5024 -180 0 0 10.72,121.87 h 18.81 a 8.6887,8.78563 -180 0 0 8.62,-8.44 8.18935,8.28071 -180 0 0 -2.5,-5.86"
   class="st3"
   id="path67"
   inkscape:connector-curvature="0"
   style="stroke:none;stroke-width:34;stroke-linecap:butt" />
				</g>
				<g
   id="shape19333-19"
   transform="translate(30.1275,-4.03937)">
					<title
   id="title70">Sheet.19333</title>
					<path
   d="m 16.05,121.87 h -3.13 v -11.54 c 0,0.84 -0.34,1.48 -0.44,1.88 l -3.33,9.66 H 6.56 L 3.23,112.28 A 15.3467,15.5179 0 0 1 2.8,110.33 v 11.54 H 0 v -14.23 h 4.66 l 2.86,8.44 a 10.9524,11.0746 0 0 1 0.5,2.02 c 0.17,-0.77 0.37,-1.48 0.54,-2.05 l 2.89,-8.41 h 4.6 z"
   class="st7"
   id="path72"
   inkscape:connector-curvature="0"
   style="fill:#ffffff;stroke:none;stroke-width:34;stroke-linecap:butt" />
				</g>
			</g>
		</g>
	</g>
</svg>

<?xml version="1.0" encoding="UTF-8" standalone="no"?>
<!DOCTYPE svg PUBLIC "-//W3C//DTD SVG 1.1//EN" "http://www.w3.org/Graphics/SVG/1.1/DTD/svg11.dtd">
<!-- Generated by Microsoft Visio, SVG Export Managed Database.svg Page-1 -->
<svg xmlns="http://www.w3.org/2000/svg" xmlns:xlink="http://www.w3.org/1999/xlink" xmlns:ev="http://www.w3.org/2001/xml-events"
		width="1.73185in" height="1.69269in" viewBox="0 0 124.693 121.874" xml:space="preserve" color-interpolation-filters="sRGB"
		class="st8">
	<style type="text/css">
	<![CDATA[
		.st1 {fill:url(#grad0-6);stroke:none;stroke-linecap:butt;stroke-width:34}
		.st2 {fill:#eaeaea}
		.st3 {stroke:none;stroke-linecap:butt;stroke-width:34}
		.st4 {fill:#50e6ff;stroke:none;stroke-linecap:butt;stroke-width:34}
		.st5 {fill:#198ab3;stroke:none;stroke-linecap:butt;stroke-width:34}
		.st6 {fill:url(#grad0-17)}
		.st7 {fill:#ffffff;stroke:none;stroke-linecap:butt;stroke-width:34}
		.st8 {fill:none;fill-rule:evenodd;font-size:12px;overflow:visible;stroke-linecap:square;stroke-miterlimit:3}
	]]>
	</style>

	<defs id="Patterns_And_Gradients">
		<linearGradient id="grad0-6" x1="0" y1="0" x2="1" y2="0" gradientTransform="rotate(0 0.5 0.5)">
			<stop offset="0" stop-color="#005ba1" stop-opacity="1"/>
			<stop offset="0.07" stop-color="#0060a9" stop-opacity="1"/>
			<stop offset="0.36" stop-color="#0071c8" stop-opacity="1"/>
			<stop offset="0.52" stop-color="#0078d4" stop-opacity="1"/>
			<stop offset="0.64" stop-color="#0074cd" stop-opacity="1"/>
			<stop offset="0.82" stop-color="#006abb" stop-opacity="1"/>
			<stop offset="1" stop-color="#005ba1" stop-opacity="1"/>
		</linearGradient>
		<linearGradient id="grad0-17" x1="0" y1="0" x2="1" y2="0" gradientTransform="rotate(-90 0.5 0.5)">
			<stop offset="0" stop-color="#198ab3" stop-opacity="1"/>
			<stop offset="0" stop-color="#198ab3" stop-opacity="1"/>
			<stop offset="0.11" stop-color="#22a5cb" stop-opacity="1"/>
			<stop offset="0.23" stop-color="#29bade" stop-opacity="1"/>
			<stop offset="0.37" stop-color="#2ec9eb" stop-opacity="1"/>
			<stop offset="0.53" stop-color="#31d1f3" stop-opacity="1"/>
			<stop offset="0.78" stop-color="#32d4f5" stop-opacity="1"/>
		</linearGradient>
	</defs>
	<g>
		<title>Page-1</title>
		<g id="group18890-1" transform="translate(34,-34.0157)">
			<title>Managed Database.18890</title>
			<g id="group18891-2">
				<title>Icon-databases-135</title>
				<g id="shape18892-3" transform="translate(0.13316,-0.70689)">
					<title>Sheet.18892</title>
					<path d="M19.97 83.2 C8.99 83.2 0 79.83 0 75.93 L0 114.6 C0 118.58 8.76 121.84 19.57 121.87 L19.87 121.87 C30.83
								 121.87 39.85 118.51 39.85 114.6 L39.85 75.93 C39.81 79.93 30.93 83.2 19.97 83.2 Z" class="st1"/>
				</g>
				<g id="shape18893-7" transform="translate(-2.71783E-13,-39.3839)">
					<title>Sheet.18893</title>
					<path d="M39.95 114.6 C39.95 118.61 31.06 121.87 19.97 121.87 C8.89 121.87 0 118.51 0 114.6 C0 110.7 9.12 107.4
								 20.11 107.4 C31.09 107.4 40.08 110.77 40.08 114.7 L39.95 114.6 Z" class="st2"/>
					<path d="M39.95 114.6 C39.95 118.61 31.06 121.87 19.97 121.87 C8.89 121.87 0 118.51 0 114.6 C0 110.7 9.12 107.4
								 20.11 107.4 C31.09 107.4 40.08 110.77 40.08 114.7" class="st3"/>
				</g>
				<g id="shape18894-10" transform="translate(4.86034,-42.5144)">
					<title>Sheet.18894</title>
					<path d="M30.33 117.26 C30.33 119.82 23.67 121.87 15.11 121.87 C6.56 121.87 0 119.69 0 117.26 C0 114.84 6.82
								 112.52 15.25 112.52 C23.67 112.52 30.33 114.57 30.33 117.26 Z" class="st4"/>
				</g>
				<g id="shape18895-12" transform="translate(8.0229,-42.649)">
					<title>Sheet.18895</title>
					<path d="M12.08 118.34 A36.619 37.0276 -180 0 0 0 120.09 A36.2528 36.6573 -180 0 0 12.08 121.87 A36.153 36.5563
								 -180 0 0 24.14 120.09 A36.619 37.0276 -180 0 0 12.08 118.34 Z" class="st5"/>
				</g>
				<g id="shape18896-14" transform="translate(18.5425,1.42109E-14)">
					<title>Sheet.18896</title>
					<path d="M35.79 107.53 A9.62082 9.72815 -180 0 0 30.83 105.04 A10.786 10.9063 -180 0 0 19.71 94.61 A11.1522 11.2766
								 -180 0 0 9.05 101.91 A10.1867 10.3004 -180 0 0 0 111.78 A10.3865 10.5024 -180 0 0 10.72 121.87 L29.53
								 121.87 A8.6887 8.78563 -180 0 0 38.15 113.43 A8.18935 8.28071 -180 0 0 35.65 107.57 L35.79 107.53
								 Z" class="st6"/>
					<path d="M35.79 107.53 A9.62082 9.72815 -180 0 0 30.83 105.04 A10.786 10.9063 -180 0 0 19.71 94.61 A11.1522 11.2766
								 -180 0 0 9.05 101.91 A10.1867 10.3004 -180 0 0 0 111.78 A10.3865 10.5024 -180 0 0 10.72 121.87 L29.53
								 121.87 A8.6887 8.78563 -180 0 0 38.15 113.43 A8.18935 8.28071 -180 0 0 35.65 107.57" class="st3"/>
				</g>
				<g id="shape18897-19" transform="translate(30.1275,-4.03937)">
					<title>Sheet.18897</title>
					<path d="M16.05 121.87 L12.92 121.87 L12.92 110.33 C12.92 111.17 12.58 111.81 12.48 112.21 L9.15 121.87 L6.56
								 121.87 L3.23 112.28 A15.3467 15.5179 0 0 1 2.8 110.33 L2.8 121.87 L0 121.87 L0 107.64 L4.66 107.64
								 L7.52 116.08 A10.9524 11.0746 0 0 1 8.02 118.1 C8.19 117.33 8.39 116.62 8.56 116.05 L11.45 107.64
								 L16.05 107.64 L16.05 121.87 Z" class="st7"/>
				</g>
			</g>
		</g>
	</g>
</svg>
